img/icons/project/1.svg

<svg width="53" height="53" viewBox="0 0 53 53" fill="none" xmlns="http://www.w3.org/2000/svg">
<path d="M26.4373 10.1452C23.6774 10.1452 21.4323 7.86959 21.4323 5.07259C21.4323 2.27558 23.6776 0 26.4373 0C29.1971 0 31.4424 2.27558 31.4424 5.07259C31.4424 7.86977 29.1971 10.1452 26.4373 10.1452Z" fill="#343434"/>
<path d="M34.3282 25.7055H18.5481C17.5204 25.7055 16.6874 24.861 16.6874 23.8195V16.8462C16.6874 14.9159 17.9114 13.2042 19.7213 12.6032L19.7296 12.6003L22.377 12.1561C22.6024 12.086 22.8431 12.2068 22.9241 12.4321L25.9278 20.7852C26.1011 21.267 26.7735 21.267 26.9468 20.7852L29.9506 12.4321C30.0161 12.2502 30.1855 12.1362 30.367 12.1362C30.41 12.1362 33.1449 12.6 33.1449 12.6C34.9698 13.2162 36.189 14.9307 36.189 16.8694V23.8196C36.189 24.8612 35.356 25.7055 34.3282 25.7055Z" fill="#343434"/>
<path d="M3.61571 38.5755C3.62552 38.5722 3.63534 38.569 3.64515 38.5659L5.07776 38.1206C5.50872 37.9868 5.97662 38.0926 6.31033 38.3982L9.3988 41.2282L12.4873 38.3982C12.821 38.0924 13.289 37.9864 13.7198 38.1206L15.1526 38.5659C15.1624 38.569 15.1722 38.5722 15.1821 38.5755C17.3449 39.3062 18.7979 41.3495 18.7979 43.66V51.7041C18.7979 52.42 18.2254 53.0002 17.5191 53.0002H1.27888C0.572567 53.0002 9.72748e-05 52.42 9.72748e-05 51.7041V43.66C-8.2016e-05 41.3495 1.45305 39.3062 3.61571 38.5755Z" fill="#343434"/>
<path d="M9.39887 37.2264C6.45513 37.2264 4.06013 34.7991 4.06013 31.8156C4.06013 28.8321 6.45513 26.4048 9.39887 26.4048C12.3428 26.4048 14.7378 28.8321 14.7378 31.8156C14.7378 34.7991 12.3428 37.2264 9.39887 37.2264Z" fill="#343434"/>
<path d="M37.818 38.5755C37.8279 38.5722 37.8377 38.569 37.8475 38.5659L39.2801 38.1206C39.7109 37.9864 40.179 38.0924 40.5127 38.3982L43.6013 41.2282L46.6898 38.3982C47.0235 38.0924 47.4915 37.9864 47.9223 38.1206C47.9223 38.1206 49.3744 38.5722 49.3844 38.5755C51.5469 39.3062 53 41.3495 53 43.66V51.7041C53 52.42 52.4275 53.0002 51.7212 53.0002H35.481C34.7747 53.0002 34.2022 52.42 34.2022 51.7041V43.66C34.2022 41.3495 35.6552 39.3062 37.818 38.5755Z" fill="#343434"/>
<path d="M48.9399 31.8156C48.9399 34.799 46.5449 37.2264 43.6012 37.2264C40.6573 37.2264 38.2623 34.799 38.2623 31.8156C38.2623 28.8321 40.6573 26.4048 43.6012 26.4048C46.5449 26.4048 48.9399 28.8321 48.9399 31.8156Z" fill="#343434"/>
<path d="M7.93974 17.5469C8.37713 17.4141 8.86983 17.5044 9.23798 17.8325C9.80635 18.3387 9.8622 19.2162 9.36272 19.7923L7.48969 21.9525C7.2295 22.2523 6.85457 22.4243 6.46055 22.4243C6.06653 22.4243 5.69142 22.2523 5.43142 21.9525L3.55839 19.7923C3.0589 19.2162 3.11476 18.3387 3.68313 17.8325C4.10731 17.4546 4.69692 17.391 5.17642 17.6218C5.45516 14.5887 6.62116 11.7427 8.55326 9.51451C9.05275 8.93847 9.91842 8.88168 10.487 9.38809C11.0553 9.89432 11.1112 10.7719 10.6117 11.3479C9.13376 13.0521 8.21599 15.219 7.93974 17.5469Z" fill="#343434"/>
<path d="M47.445 21.9521C47.1849 22.252 46.8099 22.424 46.4159 22.424C46.0219 22.424 45.6468 22.252 45.3868 21.9521L43.5137 19.7919C43.0143 19.2159 43.0701 18.3384 43.6385 17.8321C44.0068 17.5042 44.4993 17.414 44.9367 17.5467C44.6605 15.2189 43.7427 13.052 42.2649 11.3478C41.7654 10.7717 41.8213 9.89419 42.3897 9.38796C42.9582 8.88173 43.8239 8.93852 44.3234 9.51438C46.2553 11.7426 47.4213 14.5886 47.7002 17.6214C48.1799 17.3905 48.7693 17.4543 49.1935 17.8321C49.7619 18.3384 49.8177 19.2159 49.3182 19.7919L47.445 21.9521Z" fill="#343434"/>
<path d="M25.4076 12.2361C25.523 12.1086 25.692 12.0444 25.8628 12.0444H27.137C27.3077 12.0444 27.4767 12.1086 27.5922 12.2361C27.771 12.4336 27.7969 12.7189 27.67 12.9419L26.9888 13.9825L27.3077 16.7086L26.6799 18.4015C26.6187 18.5717 26.3812 18.5717 26.32 18.4015L25.6922 16.7086L26.0111 13.9825L25.33 12.9419C25.2029 12.7189 25.2288 12.4336 25.4076 12.2361Z" fill="#343434"/>
</svg>

<svg width="53" height="53" fill="none" xmlns="http://www.w3.org/2000/svg"><path d="M26.437 10.145c-2.76 0-5.005-2.275-5.005-5.072S23.678 0 26.437 0c2.76 0 5.005 2.276 5.005 5.073 0 2.797-2.245 5.072-5.005 5.072zm7.891 15.561h-15.78c-1.028 0-1.86-.845-1.86-1.886v-6.974c0-1.93 1.223-3.642 3.033-4.243l.009-.003 2.647-.444c.225-.07.466.05.547.276l3.004 8.353a.54.54 0 0 0 1.019 0l3.004-8.353a.444.444 0 0 1 .416-.296c.043 0 2.778.464 2.778.464a4.49 4.49 0 0 1 3.044 4.27v6.95c0 1.041-.833 1.886-1.86 1.886zM3.616 38.575l.03-.01 1.432-.444a1.267 1.267 0 0 1 1.232.277l3.089 2.83 3.088-2.83a1.265 1.265 0 0 1 1.233-.277l1.433.445.03.01c2.162.73 3.615 2.773 3.615 5.084v8.044c0 .716-.573 1.296-1.279 1.296H1.28C.573 53 0 52.42 0 51.704V43.66c0-2.31 1.453-4.354 3.616-5.084zm5.783-1.349c-2.944 0-5.339-2.427-5.339-5.41 0-2.984 2.395-5.411 5.339-5.411 2.944 0 5.339 2.427 5.339 5.41 0 2.984-2.395 5.411-5.34 5.411zm28.419 1.349l.03-.01 1.432-.444c.43-.135.899-.029 1.233.277l3.088 2.83 3.089-2.83a1.265 1.265 0 0 1 1.232-.277l1.462.454C51.547 39.306 53 41.35 53 43.66v8.044C53 52.42 52.428 53 51.721 53h-16.24c-.706 0-1.279-.58-1.279-1.296V43.66c0-2.31 1.453-4.354 3.616-5.084zm11.122-6.759c0 2.983-2.395 5.41-5.339 5.41-2.944 0-5.339-2.427-5.339-5.41 0-2.984 2.395-5.411 5.34-5.411 2.943 0 5.338 2.427 5.338 5.41zm-41-14.269c.437-.133.93-.043 1.298.285.568.507.624 1.384.125 1.96l-1.873 2.16a1.363 1.363 0 0 1-2.058 0l-1.874-2.16a1.402 1.402 0 0 1 .125-1.96 1.356 1.356 0 0 1 1.493-.21c.28-3.033 1.445-5.88 3.377-8.107a1.357 1.357 0 0 1 1.934-.127c.568.506.624 1.384.125 1.96-1.478 1.704-2.396 3.871-2.672 6.199zm39.505 4.405a1.362 1.362 0 0 1-2.058 0l-1.873-2.16a1.402 1.402 0 0 1 .124-1.96 1.354 1.354 0 0 1 1.299-.285c-.276-2.328-1.194-4.495-2.672-6.2a1.402 1.402 0 0 1 .125-1.959 1.358 1.358 0 0 1 1.933.126c1.932 2.229 3.098 5.075 3.377 8.107.48-.23 1.07-.167 1.493.211.569.506.625 1.384.125 1.96l-1.873 2.16z" fill="#343434"/><path d="M25.408 12.236a.611.611 0 0 1 .455-.192h1.274c.17 0 .34.065.455.192a.606.606 0 0 1 .078.706l-.681 1.04.319 2.727-.628 1.692a.19.19 0 0 1-.36 0l-.628-1.692.32-2.726-.682-1.041a.605.605 0 0 1 .078-.706z" fill="#343434"/></svg>
